src/lib/packages/icons/src/assets/filled/comments.svg

<svg width="24" height="24" viewBox="0 0 24 24" fill="none" xmlns="http://www.w3.org/2000/svg">
<path d="M20.8789 20.394C21.1189 20.594 20.9789 20.994 20.6689 20.994C19.6389 21.034 18.0591 20.894 17.0891 19.864C16.2991 20.144 15.419 20.2841 14.499 20.2841C12.481 20.2841 10.686 19.607 9.49902 18.368C9.31002 18.17 9.35802 17.785 9.79102 17.819C10.024 17.835 10.259 17.844 10.499 17.844C15.119 17.844 18.614 15.143 19.353 11.235C19.403 10.973 19.7291 10.886 19.8931 11.097C20.5931 12.003 20.998 13.1481 20.998 14.5031C20.998 16.0331 20.4679 17.314 19.5879 18.264C19.6989 18.964 20.0889 19.754 20.8789 20.394ZM17.998 9.67102C17.998 9.62402 17.992 9.58103 17.991 9.53503C17.917 5.44903 14.594 3 10.499 3C6.35802 3 3 5.50202 3 9.67102C3 11.439 3.608 12.915 4.625 14.015C4.5 14.816 4.05009 15.733 3.14209 16.467C2.86709 16.7 3.02503 17.159 3.38403 17.167C4.56703 17.209 6.39203 17.05 7.50903 15.858C7.73703 15.937 7.97094 16.006 8.21094 16.066C8.93194 16.247 9.69998 16.3409 10.501 16.3409C14.64 16.3419 17.998 13.84 17.998 9.67102Z" fill="currentColor"/>
</svg>

<svg xmlns="http://www.w3.org/2000/svg" width="24" height="24" fill="none"><path fill="currentColor" d="M20.879 20.394c.24.2.1.6-.21.6-1.03.04-2.61-.1-3.58-1.13-.79.28-1.67.42-2.59.42-2.018 0-3.813-.677-5-1.916-.189-.198-.141-.583.292-.549.233.016.468.025.708.025 4.62 0 8.115-2.701 8.854-6.609.05-.262.376-.349.54-.138.7.906 1.105 2.051 1.105 3.406 0 1.53-.53 2.811-1.41 3.761.11.7.5 1.49 1.29 2.13ZM17.998 9.671c0-.047-.006-.09-.007-.136C17.917 5.449 14.594 3 10.499 3 6.358 3 3 5.502 3 9.671c0 1.768.608 3.244 1.625 4.344-.125.801-.575 1.718-1.483 2.452-.275.233-.117.692.242.7 1.183.042 3.008-.117 4.125-1.309.228.079.462.148.702.208a9.403 9.403 0 0 0 2.29.275c4.139 0 7.497-2.501 7.497-6.67Z"/></svg>
